X:1
T:Title
%%score 1 2 3
L:1/8
M:2/2
K:C
V:1 treble nm="Part_1"
V:2 treble-8 nm="Part_2"
V:3 treble-8 nm="Part_3"
V:1
 A8- | A8 | G8 | A8 | c6 d2 | e4 d4- | d4 c4 | A4 B4- | B4 A4- | A4 ^G4 | A8- | A8 | z8 | A8 | F8 | %15
 A8 | F8 | E8 | F4 G4- | G4 F4 | D4 E4- | E4 D4- | D4 C4 | D8- | D8 | z8 | z8 | z8 | F8 | F8 | E8 | %31
 D8 | A8- | A4 d4 | c4 B4- | B4 A4- | A4 ^G4 | A8 | z8 | A8- | A4 F4- | F4 A4- | A4 F4- | F4 E4 | %44
 G4 A4 | F4 E4- | E4 D4- | D4 C4 | D8 | z4 F4 | E4 D4 | C8 | z4 F4- | F2 G2 A4- | A2 B2 c4- | %55
 c2 B2 A2 G2 | A6 G2 | E8 | F2 E2 D4- | D4 C4 | D8 |] %61
V:2
 A8- | A8 | B8 | A8 | e8 | A4 B4 | G4 A4 | d8 | c4 A4 | B8 | A8- | A8 | A8 | F8 | A8 | F8 | D8 | %17
 z4 c4 | d4 c4 | B4 A4 | G8 | F4 D4 | E8 | D8- | D8 | F8 | F8 | E8 | D8 | z4 A4- | A4 G4- | G4 F4 | %32
 D8 | d4 f4 | e4 d4- | d4 c4 | B8 | A8- | A8 | z8 | A8 | F8 | A8 | F4 G4- | G2 F2 D4- | D4 G4 | %46
 A4 F4 | E8 | D8- | D8 | z4 F4 | E4 A4- | A4 z4 | F6 G2 | A6 B2 | c8 | F8 | G4 C4 | D4 F4 | E8 | %60
 D8 |] %61
V:3
 D4 F4- | F4 D4 | d8 | c8 | A8 | c4 G4- | G4 F4 | D8 | z4 F4 | E8 | e6 d2 | c4 f4 | e4 c4- | %13
 c2 B2 A4 | D8 | A4 c4 | d8 | c4 A4 | D4 E4- | E2 D2 D4 | E4 B4- | B4 A4- | A4 G4 | A4 F4- | %24
 F4 D4- | D4 A4- | A2 B2 d4 | c2 c4 B2 | d8 | D8 | z4 C4- | C4 D4 | A8 | z4 D4 | A4 D4- | D4 A4 | %36
 E8 | e6 d2 | c8- | c8 | z8 | A8 | F8 | A4 G4 | B4 d4- | d4 B4 | c4 A4- | A4 G4 | A8- | A8 | %50
 z4 A4 | G4 A4 | F6 G2 | A6 B2 | c4 C4- | C4 z4 | c8 | B4 A4- | A8 | A4 G4 | A8 |] %61

